X: 070189
T: Grand Spey (The)
S: McGann - Conway
Z: B.Black
R: reel
M: 4/4
L: 1/8
K: D
FEDE FA A2 | BAdA BAdA | FEDE FA A2 | BAdF FE E2 |
FEDE FA A2 | BAdA BAdA | FEDE FA A2 | BAdF FE E2 ||
fedc dcAF | Adfe dBAB | dB B2 fB B2 | BAdF FE E2 |
fedc dcAF | Adfe dBAB | (3fga ba fded | BAdF FE E2 ||
faa^g a3 e | (3fga ba b3 a | fafe dcde | fbba feeg |
faa^g a3 e | (3fga ba b3 a | fafe dcde | fbba feeg ||
fcdg fcdg | gbef gbeg | fAde fedB | ABde feeg |
faa^g a3 e | egfe dcdB | AFAB defe | dBAd FE E2 ||
